teeny/outline/flag.svg

<svg width="15" height="15" viewBox="0 0 15 15" fill="none" xmlns="http://www.w3.org/2000/svg">
<path d="M14.5 0.5L14.9569 0.703069C15.0256 0.548403 15.0115 0.369461 14.9192 0.227543C14.827 0.0856253 14.6693 0 14.5 0V0.5ZM0.5 0.5V0C0.223858 0 0 0.223858 0 0.5L0.5 0.5ZM14.5 9.5V10C14.6693 10 14.827 9.91437 14.9192 9.77246C15.0115 9.63054 15.0256 9.4516 14.9569 9.29693L14.5 9.5ZM12.5 5L12.0431 4.79693C11.9856 4.92621 11.9856 5.07379 12.0431 5.20307L12.5 5ZM14.5 0H0.5V1H14.5V0ZM0 0.5V9.5H1V0.5H0ZM0.5 10H14.5V9H0.5V10ZM14.9569 9.29693L12.9569 4.79693L12.0431 5.20307L14.0431 9.70307L14.9569 9.29693ZM12.9569 5.20307L14.9569 0.703069L14.0431 0.296931L12.0431 4.79693L12.9569 5.20307ZM1 15V9.5H0V15H1Z" fill="black"/>
</svg>

<svg viewBox="0 0 15 15" xmlns="http://www.w3.org/2000/svg"><path d="M14.5.5l.45.2c.06-.16.05-.34-.04-.48 -.1-.15-.25-.23-.42-.23v.5ZM.5.5V0C.22 0 0 .22 0 .5h.5Zm14 9v.5c.16 0 .32-.09.41-.23 .09-.15.1-.33.03-.48l-.46.2Zm-2-4.5l-.46-.21c-.06.12-.06.27 0 .4l.45-.21Zm2-5H.5v1h14V0ZM0 .5v9h1v-9H0ZM.5 10h14V9H.5v1Zm14.45-.71l-2-4.5 -.92.4 2 4.5 .91-.41Zm-2-4.1l2-4.51 -.92-.41 -2 4.49 .91.4ZM.99 14.98v-5.5h-1v5.5h1Z"/></svg>
